X: 1
T: Test song
C: Song to test
M: 4/4
L: 1/4
K: C
 |: "A" A "B" B "C" c "D" d| "E" e "F" f "G" g "G" G :|
 c ^c d ^d | e f ^f g | ^g a ^a b |
 c' b _b a | _a g _g f | e _e d _d |
